public/images/vercel.svg

<svg height="800" preserveAspectRatio="xMidYMid" viewBox="0 -198 512 512" width="800" xmlns="http://www.w3.org/2000/svg"><path d="m255.420487 28.975665c-19.993209 0-34.408602 13.0390492-34.408602 32.5976231 0 19.5585738 16.226372 32.597623 36.219581 32.597623 12.07923 0 22.727787-4.7809847 29.319751-12.8398415l-13.85399-8.0045274c-3.658178 4.0022637-9.217883 6.3384267-15.465761 6.3384267-8.67459 0-16.045275-4.5274477-18.779853-11.7713639h50.743633c.398416-2.0282966.633843-4.1290323.633843-6.3384267 0-19.5404641-14.415393-32.5795133-34.408602-32.5795133zm-17.131862 26.2591963c2.263724-7.2258064 8.457272-11.7713638 17.113752-11.7713638 8.67459 0 14.868138 4.5455574 17.113752 11.7713638zm212.138087-26.2591963c-19.993209 0-34.408602 13.0390492-34.408602 32.5976231 0 19.5585738 16.226372 32.597623 36.219581 32.597623 12.07923 0 22.727787-4.7809847 29.319751-12.8398415l-13.85399-8.0045274c-3.658178 4.0022637-9.217883 6.3384267-15.465761 6.3384267-8.67459 0-16.045274-4.5274477-18.779853-11.7713639h50.743633c.398416-2.0282966.633843-4.1290323.633843-6.3384267 0-19.5404641-14.415393-32.5795133-34.408602-32.5795133zm-17.113752 26.2591963c2.263724-7.2258064 8.457272-11.7713638 17.113752-11.7713638 8.67459 0 14.868138 4.5455574 17.113752 11.7713638zm-70.682513 6.3384268c0 10.8658743 7.099038 18.1097906 18.109791 18.1097906 7.461233 0 13.057159-3.3865309 15.936615-8.910017l13.90832 8.0226372c-5.758914 9.598189-16.552349 15.3752122-29.844935 15.3752122-20.011319 0-34.408602-13.0390492-34.408602-32.597623 0-19.5585739 14.415393-32.5976231 34.408602-32.5976231 13.292586 0 24.067911 5.7770232 29.844935 15.3752122l-13.90832 8.0226372c-2.879456-5.5234861-8.475382-8.9100169-15.936615-8.9100169-10.992643 0-18.109791 7.2439162-18.109791 18.1097906zm149.369553-52.5183928v83.3050368h-16.298812v-83.3050368zm-445.0843237-9.0548953 66.9156767 115.90266h-133.831353zm167.2982457 9.0548953-50.18223 86.9269949-50.18223-86.9269949h18.816073l31.366157 54.3293718 31.366157-54.3293718zm106.684776 21.7317487v17.5483871c-1.810979-.5251839-3.730617-.8873797-5.795133-.8873797-10.521788 0-18.10979 7.2439162-18.10979 18.1097906v26.8024901h-16.298812v-61.5732881h16.298812v16.6610074c0-9.1997736 10.702886-16.6610074 23.904923-16.6610074z" fill="#fff"/></svg>

<?xml version="1.0" encoding="UTF-8" ?>
<!-- Uploaded to: SVG Repo, www.svgrepo.com, Generator: SVG Repo Mixer Tools -->
<svg width="800px"
     height="800px"
     viewBox="0 -198 512 512"
     version="1.1"
     xmlns="http://www.w3.org/2000/svg"
     xmlns:xlink="http://www.w3.org/1999/xlink"
     preserveAspectRatio="xMidYMid">
    <g>
        <path d="M255.420487,28.975665 C235.427278,28.975665 221.011885,42.0147142 221.011885,61.5732881 C221.011885,81.1318619 237.238257,94.1709111 257.231466,94.1709111 C269.310696,94.1709111 279.959253,89.3899264 286.551217,81.3310696 L272.697227,73.3265422 C269.039049,77.3288059 263.479344,79.6649689 257.231466,79.6649689 C248.556876,79.6649689 241.186191,75.1375212 238.451613,67.893605 L289.195246,67.893605 C289.593662,65.8653084 289.829089,63.7645727 289.829089,61.5551783 C289.829089,42.0147142 275.413696,28.975665 255.420487,28.975665 Z M238.288625,55.2348613 C240.552349,48.0090549 246.745897,43.4634975 255.402377,43.4634975 C264.076967,43.4634975 270.270515,48.0090549 272.516129,55.2348613 L238.288625,55.2348613 L238.288625,55.2348613 Z M450.426712,28.975665 C430.433503,28.975665 416.01811,42.0147142 416.01811,61.5732881 C416.01811,81.1318619 432.244482,94.1709111 452.237691,94.1709111 C464.316921,94.1709111 474.965478,89.3899264 481.557442,81.3310696 L467.703452,73.3265422 C464.045274,77.3288059 458.485569,79.6649689 452.237691,79.6649689 C443.563101,79.6649689 436.192417,75.1375212 433.457838,67.893605 L484.201471,67.893605 C484.599887,65.8653084 484.835314,63.7645727 484.835314,61.5551783 C484.835314,42.0147142 470.419921,28.975665 450.426712,28.975665 L450.426712,28.975665 Z M433.31296,55.2348613 C435.576684,48.0090549 441.770232,43.4634975 450.426712,43.4634975 C459.101302,43.4634975 465.29485,48.0090549 467.540464,55.2348613 L433.31296,55.2348613 Z M362.630447,61.5732881 C362.630447,72.4391624 369.729485,79.6830787 380.740238,79.6830787 C388.201471,79.6830787 393.797397,76.2965478 396.676853,70.7730617 L410.585173,78.7956989 C404.826259,88.3938879 394.032824,94.1709111 380.740238,94.1709111 C360.728919,94.1709111 346.331636,81.1318619 346.331636,61.5732881 C346.331636,42.0147142 360.747029,28.975665 380.740238,28.975665 C394.032824,28.975665 404.808149,34.7526882 410.585173,44.3508772 L396.676853,52.3735144 C393.797397,46.8500283 388.201471,43.4634975 380.740238,43.4634975 C369.747595,43.4634975 362.630447,50.7074137 362.630447,61.5732881 Z M512,9.0548953 L512,92.3599321 L495.701188,92.3599321 L495.701188,9.0548953 L512,9.0548953 Z M66.9156763,-1.42108547e-14 L133.831353,115.90266 L0,115.90266 L66.9156763,-1.42108547e-14 Z M234.213922,9.0548953 L184.031692,95.9818902 L133.849462,9.0548953 L152.665535,9.0548953 L184.031692,63.3842671 L215.397849,9.0548953 L234.213922,9.0548953 Z M340.898698,30.786644 L340.898698,48.3350311 C339.087719,47.8098472 337.168081,47.4476514 335.103565,47.4476514 C324.581777,47.4476514 316.993775,54.6915676 316.993775,65.557442 L316.993775,92.3599321 L300.694963,92.3599321 L300.694963,30.786644 L316.993775,30.786644 L316.993775,47.4476514 C316.993775,38.2478778 327.696661,30.786644 340.898698,30.786644 Z"
              fill="#ffffff"
              fill-rule="nonzero" />
    </g>
</svg>
